X:172
T:Shovelin' The Snow
R:jig
C:Bruce Osborne - Dec. 2002
Z:abc by bosborne@kos.net
M:6/8
L:1/8
K:Amaj
A/B/|cAF ECD|EAc ecA|fdf ecA|GAB BAB|\
cAF ECD|EAc ecA|fdf ecA|GAB A2:|
|:c/d/|ecA ecA|fdf ecA|fdf ecA|GAB Bcd|\
ecA ecA|fdf ecA|fdf ecA|EcB A2:|
